X: 191
T: the Brill
%R: hornpipe
M: 2/4
L: 1/8
Z: 2014 John Chambers <jc:trillian.mit.edu>
B: Chas & Sam Thompson "Twenty Four Country Dances for the Year 1772", London 1772, p.96
F: http://folkopedia.efdss.org/images/8/89/Thompson_24_1772.PDF
K: G
|:\
G>GG>G | c2(B>A) | B>GB>d | g>gg>g |\
G>GG>G | c2B>A | B>dB>G | A>FD2 :|
|:\
d>dd>d | Tg2f>e | f>gf>d | ^c>ec>A |\
d>de>f | g2f>e | d>cB>A | G2 :|
% - - - - - - - - - - - - - - - - - - - - - - - - -
%%begintext align
%% The first Cu: set to the 2d Wo: and turn .|. set to
%% the Second Man and turn :|. cross over and half
%% Figure .|: right hands and left :|:
%%endtext
% - - - - - - - - - - - - - - - - - - - - - - - - -

%%sep 1 1 500
%%sep 1 1 500
